X: 8293
T: Corney Is Coming
R: reel
M: 4/4
K: Dmajor
Addc dfed|=cABG EFGB|Addc defg|afge fdec|
Addc dfed|=cABG EFGB|Addc defg|afge fddc:|
dcdf afdB|=cdef ge^ce|dcdf afdf|g2ag fddf|
afdf afdf|ge=ce ~g3e|defg ~a3f|g2ag fddc:|

